X: 1
T: Fiddler Crabs
C: John Turner 2006
R: hornpipe
N: In tribute to "Sailor" Hector McNeill, founder of Red Springs, NC
Z: 2006 John Chambers <jc:trillian.mit.edu>
M: 4/4
L: 1/8
K: Am
|: e2 \
| "Am"a2ed cBAc | "E"BA^GB "Am"A2ce | "Dm"fedf "Am"edce | "Dm"dcBA "E"B2e2 | "Am"a2ed cBAc |
| "E"BA^GB "Am"A2c2 | "E"Bcdf "Am"ed"E"cB | "Am"c2A2 A2 || ED | "Am"A,B,CD EcBA | "E"^GEGA B2GB |
| "Am"AEAB cBAc | "E"B2^G2 E2e2 | "Am"a2ed cBAc | "E"BA^GB "Am"A2c2 | "E"Bcdf "Am"ed"E"cB | "Am"c2A2 A2 :|
